svg/justvector/spotify.svg

<svg xmlns="http://www.w3.org/2000/svg" viewBox="0 0 100 100" enable-background="new 0 0 100 100"><path d="m20.389 84.28c6.928-9.985 18.439-16.545 31.514-16.545 11.903 0 22.508 5.438 29.545 13.945 8.06-8.133 13.05-19.32 13.05-31.677 0-24.854-20.15-45-45-45-24.852 0-45 20.15-45 45 0 13.74 6.178 26.03 15.889 34.28m53.17-20.779c-.654 1.459-1.824 1.755-3.195 1.122-5.993-2.772-12.663-4.325-19.696-4.325-7.22 0-14.05 1.637-20.17 4.546-.655.313-2.095.45-2.743-1.415-.648-1.867.376-2.923.965-3.195 6.673-3.121 14.1-4.893 21.949-4.893 7.712 0 15.13 1.466 21.595 4.728 1.019.516 1.949 1.973 1.296 3.432m3.829-11.495c-.466.652-1.191 1.104-2.053 1.104-.238 0-.455-.077-.673-.138-7.343-3.245-15.452-5.067-23.995-5.067-8.479 0-16.534 1.794-23.835 4.993-.264.092-.536.173-.832.173-.878 0-1.616-.468-2.079-1.142l-.486-1.459c.009-.757.362-1.412.891-1.878 8.04-3.611 16.951-5.645 26.342-5.645 9.387 0 18.288 2.029 26.331 5.641.539.459.884 1.134.898 1.891l-.509 1.527m-56.33-18.17c9.154-3.694 19.14-5.758 29.61-5.758 10.378 0 20.272 2.02 29.354 5.651 1.23.627 2.092 1.861 2.092 3.335 0 2.088-1.694 3.78-3.78 3.78-.292 0-.568-.065-.839-.129-8.292-3.343-17.339-5.203-26.826-5.203-9.494 0-18.549 1.862-26.843 5.211-.269.06-.535.121-.82.121-2.086 0-3.78-1.692-3.78-3.78-.0001-1.375.738-2.567 1.832-3.228m30.849 48.776c-7.621 0-14.371 3.673-18.678 9.311 5.05 1.964 10.529 3.082 16.276 3.082 7.123 0 13.831-1.698 19.817-4.645-4.305-4.75-10.511-7.748-17.415-7.748"/></svg>

<?xml version="1.0" encoding="iso-8859-1"?>
<!-- Generator: Adobe Illustrator 15.0.0, SVG Export Plug-In . SVG Version: 6.00 Build 0)  -->
<!DOCTYPE svg PUBLIC "-//W3C//DTD SVG 1.1//EN" "http://www.w3.org/Graphics/SVG/1.1/DTD/svg11.dtd">
<svg version="1.1" id="Icons" xmlns="http://www.w3.org/2000/svg" xmlns:xlink="http://www.w3.org/1999/xlink" x="0px" y="0px"
	 width="100px" height="100px" viewBox="0 0 100 100" style="enable-background:new 0 0 100 100;" xml:space="preserve">
<path id="Spotify" d="M20.389,84.279c6.928-9.985,18.439-16.545,31.514-16.545c11.903,0,22.508,5.438,29.545,13.945
	C89.511,73.546,94.5,62.359,94.5,50.002C94.5,25.148,74.354,5,49.5,5c-24.852,0-45,20.148-45,45.002
	C4.5,63.742,10.678,76.028,20.389,84.279z M73.555,63.5c-0.654,1.459-1.824,1.755-3.195,1.122
	c-5.993-2.772-12.663-4.325-19.696-4.325c-7.22,0-14.055,1.637-20.171,4.546c-0.655,0.313-2.095,0.45-2.743-1.415
	c-0.648-1.867,0.376-2.923,0.965-3.195c6.673-3.121,14.099-4.893,21.949-4.893c7.712,0,15.134,1.466,21.595,4.728
	C73.278,60.584,74.208,62.041,73.555,63.5z M77.384,52.005c-0.466,0.652-1.191,1.104-2.053,1.104c-0.238,0-0.455-0.077-0.673-0.138
	c-7.343-3.245-15.452-5.067-23.995-5.067c-8.479,0-16.534,1.794-23.835,4.993c-0.264,0.092-0.536,0.173-0.832,0.173
	c-0.878,0-1.616-0.468-2.079-1.142l-0.486-1.459c0.009-0.757,0.362-1.412,0.891-1.878c8.044-3.611,16.951-5.645,26.342-5.645
	c9.387,0,18.288,2.029,26.331,5.641c0.539,0.459,0.884,1.134,0.898,1.891L77.384,52.005z M21.053,33.831
	c9.154-3.694,19.136-5.758,29.61-5.758c10.378,0,20.272,2.022,29.354,5.651c1.23,0.627,2.092,1.861,2.092,3.335
	c0,2.088-1.694,3.78-3.78,3.78c-0.292,0-0.568-0.065-0.839-0.129c-8.292-3.343-17.339-5.203-26.826-5.203
	c-9.494,0-18.549,1.862-26.843,5.211c-0.269,0.06-0.535,0.121-0.82,0.121c-2.086,0-3.78-1.692-3.78-3.78
	C19.22,35.684,19.959,34.492,21.053,33.831z M51.902,82.607c-7.621,0-14.371,3.673-18.678,9.311C38.279,93.882,43.753,95,49.5,95
	c7.123,0,13.831-1.698,19.817-4.645C65.012,85.605,58.806,82.607,51.902,82.607z"/>
</svg>
